X:1
T:CWa
C:B00391205
L:1/8
Q:1/4=70
M:4/4
I:linebreak $
K:C
 C,3 E, G,2 D,2 | D,E,G,B, CB,G,E, | D,3 E, G,2 E,,2 | E,2 G,,B,, E,G, B,2 | E,3 E, G, E,,3 |$ 
A,,2 G,B, E,D,B,,A,, | B,,D, B,/F,/G,/F,/ G,F,E,D, | C,8 |] 